X:372
T:K.O.S.B. Leaving Sun Wai Camp, The 
C:Joe Buchanan's Scottish Tome - Page 037.0
I:037 0
C:P.M. John Slattery
R:March
Z:Carl Allison
L:1/8
M:2/4
K:A
c>d | c>d eA | cB Bc/<d/ | cB/<A/ ca | e ef/<g/ |
|:af e>f | cB Bc/>d/ | c>e d/>B/G/<B | A A :|
f/>g/ | a>f eA | cB Bf/>g/ | a>f e>f | c d>f |
|:eA aA | cB Bc/<d/ | c>e d/>B/G/<B/ | A2 A :|
[Fc]/d/ | [Gc]/e3/>A c/>e>A | cB Bc/>d/ | c/<e/A ca | e ef/g/ |
f2 | a>f e/f/>A/>e/ | cB Bc/>d/ | ce d/B/>G/B/> | A A |
f/>g/ | a>f e/>f/A/>e/ | c/>e/A/>e/ c/>e/A/>c/ | a>f e/>f/A/>e/ | c2 d>f |
|:eA c/<a/e/>A/ | cB Bc/<d/ | c>e d/>B/G/>/B/ | A2 A :|

